X: 1
T: Ravit K\"apyl\"ass\"a  (G)
C: Otto Hotakainen
Z: 2013 John Chambers <jc:trillian.mit.edu>
M: 2/4
L: 1/16
K: G
|:\
"G"D2B,D GGDG | BGBd gded | D2GB .d2ed | "D7"d2F2 F4 |
"D"DDA,D F2DF | AAFA f2fg | agfg agfe | "G"d2B2 B4 |
"G"D2B,D GGDG | BGBd gded | D2GB .d2gf | "C"gfe2 "Am"e4 |
"D"a^gab afed | "G"gfga gfef | "D"defe dcBA | "(G)"BAGF "G"G4 :|
|:\
"G"gfgf "(C)".e2zd | "G"d6 B2 | BABA .G2zG | "C"E2[G2E2] [G4E4] |
"D"DDD2 F2F2 | AAA2 f3e | d2c2 B2A2 |1-3 "G"GGG2 BGBd :|4 "G"G8 |]

%%sep 1 1 500

